X: 9669
T: Dead Piper, The
R: jig
M: 6/8
K: Gmajor
BGB dBG|cGg dBG|BGB dBG|(3^GAB A A=GA|
BGB ~d3|~c3 dBG|BGB dBA|GDB, G,3||
BGB dBG|cGg dBG|BGB ~d3|cAF dAF|
GBB dBg|eGg dBG|BGB dBA|GFA G3||
~g2 e fed|~g2 e dBG|gag (3fga f|gdB ABd|
gdg fdf|gdg dBG|BGB dBA|GFA G3||
~g2 e fed|~g2 e dBG|gag (3fga f|gdB ABd|
bag ~a2 f|gfe dBG|BGB dBA|GFA G3||

